components/icon/svg/24/journey_intermediary-stop.svg

<?xml version="1.0" encoding="UTF-8"?>
<svg width="24px" height="24px" viewBox="0 0 24 24" version="1.1" xmlns="http://www.w3.org/2000/svg" xmlns:xlink="http://www.w3.org/1999/xlink">
    <!-- Generator: Sketch 64 (93537) - https://sketch.com -->
    <title>ic-db_journey_intermediary-stop_24</title>
    <desc>Created with Sketch.</desc>
    <g id="Symbols" stroke="none" stroke-width="1" fill="none" fill-rule="evenodd">
        <g id="24dp-Icon/Journey/Intermediary-Stop" fill="#282D37">
            <path d="M12,6 C15.3125,6 18,8.6875 18,12 C18,15.3125 15.3125,18 12,18 C8.6875,18 6,15.3125 6,12 C6,8.6875 8.6875,6 12,6 Z M12,8 C9.7812,8 8,9.7812 8,12 C8,14.2188 9.7812,16 12,16 C14.2188,16 16,14.2188 16,12 C16,9.7812 14.2188,8 12,8 Z" id="🎨-Color"></path>
        </g>
    </g>
</svg>

<svg width="24" height="24" xmlns="http://www.w3.org/2000/svg"><path d="M12 6c3.313 0 6 2.688 6 6 0 3.313-2.688 6-6 6-3.313 0-6-2.688-6-6 0-3.313 2.688-6 6-6zm0 2c-2.219 0-4 1.781-4 4 0 2.219 1.781 4 4 4 2.219 0 4-1.781 4-4 0-2.219-1.781-4-4-4z" fill="#282D37" fill-rule="evenodd"/></svg>
